X:565
T:Reel 565
M:4/4
K:Amin
L:1/8
A,B,CA, EA,CA,|G,2B,D GDB,G,|A,2CA, EA,CA,|B,G,E,D, E,2A,2:|A,AA^G ABA=G|EGG^F GDB,G,|A,AA^G ABA=G|EGDB, B,A,A,2|EAAG ABA=G|EGGA AGED|CDEF GBGA|BA^GB A2A2|
